X: 21502
T: DUMB MAN OF MANCHESTER -- Reel
R: reel
B: K\"ohler's Violin Repository, v.2, 1885 p.150 #2
F: http://www.archive.org/details/klersviolinrepos02rugg
Z: 2012 John Chambers <jc:trillian.mit.edu>
M: C|
L: 1/8
K: C
|: vcBAB cded |  cBAc  B2E2 | cBAB cdef | gage d2c2 :|
|: vcdef ede2 | (cd)ef d2g2 | cdef edef | gage d2c2 :|

%%sep 2 1 500

